svg/Pictogram/pictograms-aem-0129-puncture_of_hand_or_finger.svg

<?xml version="1.0" encoding="UTF-8" standalone="no"?>
<svg height="304" id="svg2" inkscape:output_extension="org.inkscape.output.svg.inkscape" inkscape:version="0.46" sodipodi:docname="pictograms-aem-0129-puncture_of_hand_or_finger-2.svg" sodipodi:version="0.32" version="1.0" width="304" xmlns="http://www.w3.org/2000/svg" xmlns:cc="http://creativecommons.org/ns#" xmlns:dc="http://purl.org/dc/elements/1.1/" xmlns:inkscape="http://www.inkscape.org/namespaces/inkscape" xmlns:rdf="http://www.w3.org/1999/02/22-rdf-syntax-ns#" xmlns:sodipodi="http://sodipodi.sourceforge.net/DTD/sodipodi-0.dtd" xmlns:svg="http://www.w3.org/2000/svg">
  <metadata>
    <rdf:RDF xmlns:cc="http://web.resource.org/cc/" xmlns:dc="http://purl.org/dc/elements/1.1/" xmlns:rdf="http://www.w3.org/1999/02/22-rdf-syntax-ns#">
      <cc:Work rdf:about="">
        <dc:title></dc:title>
        <dc:description></dc:description>
        <dc:subject>
          <rdf:Bag>
            <rdf:li></rdf:li>
          </rdf:Bag>
        </dc:subject>
        <dc:publisher>
          <cc:Agent rdf:about="http://www.unece.org/trans/danger/publi/ghs/pictograms.html">
            <dc:title>Source: UNECE GHS of Classification and Labeling of Chemicals, Source: AEM Pictorial Database, Source: AEM Pictorial Database, Source: AEM Pictorial Database, Source: AEM Pictorial Database</dc:title>
          </cc:Agent>
        </dc:publisher>
        <dc:creator>
          <cc:Agent>
            <dc:title></dc:title>
          </cc:Agent>
        </dc:creator>
        <dc:rights>
          <cc:Agent>
            <dc:title></dc:title>
          </cc:Agent>
        </dc:rights>
        <dc:date></dc:date>
        <dc:format>image/svg+xml</dc:format>
        <dc:type rdf:resource="http://purl.org/dc/dcmitype/StillImage"/>
        <cc:license rdf:resource="http://en.wikipedia.org/wiki/Public_domain"/>
        <dc:language>en</dc:language>
      </cc:Work>
    </rdf:RDF>
  </metadata>
  <sodipodi:namedview bordercolor="#666666" borderopacity="1.0" gridtolerance="10.0" guidetolerance="10.0" id="base" inkscape:current-layer="svg2" inkscape:cx="105.494" inkscape:cy="107.615" inkscape:pageopacity="0.0" inkscape:pageshadow="2" inkscape:window-height="674" inkscape:window-width="640" inkscape:window-x="303" inkscape:window-y="82" inkscape:zoom="0.53895833" objecttolerance="10.0" pagecolor="#ffffff" showgrid="false"/>
  <defs id="defs6">
    <inkscape:perspective id="perspective20" inkscape:persp3d-origin="105.494 : 71.743332 : 1" inkscape:vp_x="0 : 107.615 : 1" inkscape:vp_y="0 : 1000 : 0" inkscape:vp_z="210.98801 : 107.615 : 1" sodipodi:type="inkscape:persp3d"/>
    <marker id="ArrowEnd" markerHeight="3" markerUnits="strokeWidth" markerWidth="4" orient="auto" refX="0" refY="5" viewBox="0 0 10 10">
      <path d="M 0,0 L 10,5 L 0,10 L 0,0 z" id="path9"/>
    </marker>
    <marker id="ArrowStart" markerHeight="3" markerUnits="strokeWidth" markerWidth="4" orient="auto" refX="10" refY="5" viewBox="0 0 10 10">
      <path d="M 10,0 L 0,5 L 10,10 L 10,0 z" id="path12"/>
    </marker>
  </defs>
  <g id="g2958" transform="matrix(1.3532768,0,0,1.3532781,9.8768199,9.0363649)">
    <path d="M 65.5938,191.496 L 62.3477,191.496 L 62.3477,122.585 L 63.5664,120.96 L 65.5938,123.937 L 65.5938,191.496" id="path15" style="fill:#000000;fill-rule:evenodd;stroke:none"/>
    <path d="M 52.9961,103.418 C 53.0586,103.792 53.0898,104.179 53.0898,104.574 C 53.0898,108.527 49.8828,111.734 45.9297,111.734 C 44.7109,111.734 43.5664,111.433 42.5625,110.894 L 19.4766,94.183 C 15.9609,91.48 10.8203,90.937 6.76172,92.292 C 4.05859,93.644 0.269531,95.269 0,99.054 C 17.8516,112.578 55.4531,139.359 55.4531,139.359 C 55.5352,139.113 59.7617,123.738 59.7617,123.738 C 59.7617,123.738 64.0938,110.757 67.3438,124.16 L 72.7266,152.746 L 156.078,215.23 L 210.988,215.23 L 210.988,183.992 L 115.23,112.578 C 115.23,112.578 125.973,28.05 125.973,27.957 C 125.973,24.023 122.785,20.835 118.852,20.835 C 115.191,20.835 112.18,23.589 111.773,27.14 L 105.465,71.98 C 104.996,73.136 103.863,73.953 102.539,73.953 C 100.797,73.953 99.3867,72.539 99.3867,70.796 L 99.6328,10.875 C 99.6328,6.94099 96.4453,3.75299 92.5117,3.75299 C 88.7109,3.75299 85.6055,6.726 85.3984,10.476 L 84.9141,70.175 C 84.7891,71.8 83.4297,73.082 81.7695,73.082 C 80.2461,73.082 78.9766,72 78.6836,70.562 L 67.8789,6 C 67.3398,2.601 64.3984,0 60.8438,0 C 56.9102,0 53.7227,3.19099 53.7227,7.125 C 53.7227,7.261 64.1016,69.871 64.1016,70.089 C 64.1016,71.832 62.6914,73.246 60.9492,73.246 C 59.5078,73.246 58.2891,72.277 57.9141,70.953 L 38.8164,22.668 C 37.7305,20.121 35.2031,18.335 32.2617,18.335 C 28.3281,18.335 25.1367,21.523 25.1367,25.457 C 25.1367,25.957 25.1914,26.449 25.2891,26.918 L 53,103.418" id="path17" style="fill:#000000;fill-rule:evenodd;stroke:none"/>
  </g>
</svg>

<svg xmlns="http://www.w3.org/2000/svg" viewBox="0 0 304 304"><g transform="matrix(1.35328 0 0 1.35328 9.877 9.04)" fill-rule="evenodd"><path d="m65.59 191.5h-3.246v-68.911l1.219-1.625 2.027 2.977v67.56"/><path d="m52.996 103.42c.063.374.094.761.094 1.156 0 3.953-3.207 7.16-7.16 7.16-1.219 0-2.363-.301-3.367-.84l-23.09-16.711c-3.516-2.703-8.656-3.246-12.715-1.891-2.703 1.352-6.492 2.977-6.762 6.762 17.852 13.524 55.45 40.31 55.45 40.31.082-.246 4.309-15.621 4.309-15.621 0 0 4.332-12.981 7.582.422l5.383 28.586 83.35 62.48h54.91v-31.24l-95.76-71.41c0 0 10.743-84.53 10.743-84.62 0-3.934-3.188-7.122-7.121-7.122-3.661 0-6.672 2.754-7.079 6.305l-6.308 44.84c-.469 1.156-1.602 1.973-2.926 1.973-1.742 0-3.152-1.414-3.152-3.157l.246-59.921c0-3.934-3.188-7.122-7.121-7.122-3.801 0-6.906 2.973-7.113 6.723l-.484 59.699c-.125 1.625-1.484 2.907-3.145 2.907-1.523 0-2.793-1.082-3.086-2.52l-10.805-64.56c-.539-3.399-3.481-6-7.04-6-3.934 0-7.121 3.191-7.121 7.125 0 .136 10.379 62.746 10.379 62.964 0 1.743-1.41 3.157-3.152 3.157-1.441 0-2.66-.969-3.035-2.293l-19.1-48.29c-1.086-2.547-3.613-4.333-6.555-4.333-3.934 0-7.125 3.188-7.125 7.122 0 .5.055.992.152 1.461l27.711 76.5"/></g></svg>
